;FLAVOR:Marlin
;TIME:1055
;Filament used: 0.621812m
;Layer height: 0.16
;MINX:50.53
;MINY:60.935
;MINZ:0.2
;MAXX:114.055
;MAXY:104.068
;MAXZ:7.4
;TARGET_MACHINE.NAME:Creality Ender-2
;Generated with Cura_SteamEngine 5.7.2
M140 S60
M105
M190 S60
M104 S210
M105
M109 S210
M82 ;absolute extrusion mode
M201 X500.00 Y500.00 Z100.00 E5000.00 ;Setup machine max acceleration
M203 X500.00 Y500.00 Z10.00 E50.00 ;Setup machine max feedrate
M204 P500.00 R1000.00 T500.00 ;Setup Print/Retract/Travel acceleration
M205 X8.00 Y8.00 Z0.40 E5.00 ;Setup Jerk
M220 S100 ;Reset Feedrate
M221 S100 ;Reset Flowrate

G28 ;Home

G92 E0 ;Reset Extruder
G1 Z2.0 F3000 ;Move Z Axis up
G1 X10.1 Y20 Z0.28 F5000.0 ;Move to start position
G1 X10.1 Y100.0 Z0.28 F1500.0 E8 ;Draw the first line
G1 X10.4 Y100.0 Z0.28 F5000.0 ;Move to side a little
G1 X10.4 Y20 Z0.28 F1500.0 E15 ;Draw the second line
G92 E0 ;Reset Extruder
G1 Z2.0 F3000 ;Move Z Axis up

G92 E0
G92 E0
G1 F2700 E-5
;LAYER_COUNT:38
;LAYER:0
M107
G0 F6000 X57.653 Y67.203 Z0.2
;TYPE:SKIRT
G1 F2700 E0
G1 F1200 X58.076 Y66.859 E0.01813
G1 X58.485 Y66.542 E0.03535
G1 X59.04 Y66.141 E0.05812
G1 X59.61 Y65.756 E0.081
G1 X60.209 Y65.378 E0.10455
G1 X60.744 Y65.067 E0.12514
G1 X61.32 Y64.754 E0.14694
G1 X61.896 Y64.465 E0.16837
G1 X62.696 Y64.103 E0.19758
G1 X63.238 Y63.885 E0.21701
G1 X63.729 Y63.7 E0.23446
G1 X64.202 Y63.536 E0.25111
G1 X64.832 Y63.34 E0.27306
G1 X65.472 Y63.161 E0.29516
G1 X66.189 Y62.988 E0.31969
G1 X66.896 Y62.843 E0.3437
G1 X67.684 Y62.713 E0.37026
G1 X68.295 Y62.636 E0.39074
G1 X68.928 Y62.576 E0.41189
G1 X69.838 Y62.527 E0.4422
G1 X70.854 Y62.514 E0.476
G1 X72.282 Y62.534 E0.5235
G1 X74.851 Y62.534 E0.60894
G1 X77.389 Y62.461 E0.69339
G1 X79.906 Y62.32 E0.77724
G1 X82.43 Y62.105 E0.86149
G1 X84.884 Y61.825 E0.94364
G1 X87.497 Y61.453 E1.03143
G1 X89.286 Y61.171 E1.09166
G1 X90.094 Y61.067 E1.11876
G1 X91.099 Y60.979 E1.15231
G1 X91.889 Y60.942 E1.17862
G1 X92.711 Y60.935 E1.20596
G1 X93.517 Y60.959 E1.23278
G1 X93.965 Y60.986 E1.2477
G1 X94.77 Y61.056 E1.27458
G1 X95.632 Y61.164 E1.30347
G1 X96.517 Y61.312 E1.33332
G1 X97.306 Y61.478 E1.36014
G1 X98.145 Y61.688 E1.3889
G1 X98.601 Y61.819 E1.40468
G1 X99.368 Y62.062 E1.43144
G1 X100.236 Y62.377 E1.46215
G1 X100.649 Y62.538 E1.4769
G1 X101.402 Y62.862 E1.50416
G1 X101.921 Y63.103 E1.52319
G1 X102.656 Y63.478 E1.55064
G1 X103.541 Y63.983 E1.58453
G1 X103.992 Y64.259 E1.60212
G1 X104.63 Y64.678 E1.6275
G1 X105.317 Y65.165 E1.65551
G1 X105.683 Y65.442 E1.67078
G1 X106.398 Y66.016 E1.70127
G1 X106.804 Y66.364 E1.71906
G1 X107.483 Y66.999 E1.74998
G1 X108.15 Y67.677 E1.78161
G1 X108.66 Y68.235 E1.80676
G1 X109.067 Y68.713 E1.82764
G1 X109.574 Y69.346 E1.85461
G1 X110.052 Y69.99 E1.88129
G1 X110.29 Y70.33 E1.89509
G1 X110.74 Y71.018 E1.92243
G1 X111.042 Y71.509 E1.9416
G1 X111.387 Y72.117 E1.96486
G1 X111.742 Y72.791 E1.99019
G1 X111.988 Y73.291 E2.00873
G1 X112.302 Y73.988 E2.03415
G1 X112.645 Y74.835 E2.06455
G1 X112.796 Y75.243 E2.07902
G1 X113.056 Y76.018 E2.1062
G1 X113.366 Y77.087 E2.14322
G1 X113.566 Y77.926 E2.17191
G1 X113.76 Y78.953 E2.20667
G1 X113.863 Y79.616 E2.22899
G1 X113.959 Y80.442 E2.25665
G1 X114.026 Y81.381 E2.28796
G1 X114.055 Y82.123 E2.31266
G1 X114.054 Y83.011 E2.34219
G1 X114.013 Y83.839 E2.36976
G1 X113.931 Y84.772 E2.40092
G1 X113.871 Y85.287 E2.41816
G1 X113.747 Y86.115 E2.44601
G1 X113.603 Y86.889 E2.47219
G1 X113.506 Y87.332 E2.48728
G1 X113.308 Y88.119 E2.51427
G1 X113.175 Y88.594 E2.53067
G1 X112.94 Y89.34 E2.55669
G1 X112.528 Y90.476 E2.59688
G1 X112.196 Y91.27 E2.6255
G1 X111.89 Y91.927 E2.64961
G1 X111.517 Y92.651 E2.6767
G1 X110.956 Y93.63 E2.71423
G1 X110.512 Y94.335 E2.74194
G1 X110.228 Y94.757 E2.75886
G1 X109.799 Y95.352 E2.78325
G1 X109.241 Y96.073 E2.81358
G1 X108.897 Y96.493 E2.83163
G1 X108.558 Y96.886 E2.84889
G1 X108.009 Y97.477 E2.87572
G1 X107.391 Y98.093 E2.90475
G1 X106.774 Y98.662 E2.93266
G1 X106.144 Y99.198 E2.96017
G1 X105.484 Y99.714 E2.98804
G1 X104.7 Y100.281 E3.02022
G1 X103.941 Y100.781 E3.05045
G1 X103.286 Y101.173 E3.07584
G1 X102.62 Y101.54 E3.10113
G1 X101.737 Y101.979 E3.13393
G1 X100.902 Y102.354 E3.16437
G1 X100.306 Y102.599 E3.1858
G1 X99.442 Y102.918 E3.21644
G1 X98.76 Y103.135 E3.24024
G1 X98.049 Y103.335 E3.26481
G1 X97.443 Y103.487 E3.28559
G1 X96.73 Y103.642 E3.30985
G1 X96.13 Y103.755 E3.33016
G1 X95.58 Y103.843 E3.34869
G1 X94.842 Y103.939 E3.37344
G1 X93.874 Y104.022 E3.40575
G1 X92.794 Y104.068 E3.44171
G1 X91.986 Y104.067 E3.46858
G1 X91.165 Y104.026 E3.49592
G1 X90.503 Y103.973 E3.51801
G1 X89.505 Y103.861 E3.55141
G1 X89.1 Y103.805 E3.56501
G1 X86.52 Y103.397 E3.65189
G1 X83.988 Y103.062 E3.73684
G1 X81.455 Y102.799 E3.82154
G1 X79.001 Y102.614 E3.90339
G1 X76.424 Y102.493 E3.9892
G1 X73.943 Y102.447 E4.07173
G1 X71.816 Y102.462 E4.14247
G1 X70.567 Y102.484 E4.18402
G1 X69.888 Y102.475 E4.20661
G1 X69.256 Y102.445 E4.22765
G1 X68.583 Y102.393 E4.2501
G1 X68.058 Y102.334 E4.26768
G1 X67.381 Y102.236 E4.29043
G1 X66.691 Y102.115 E4.31373
G1 X66.023 Y101.975 E4.33643
G1 X65.53 Y101.855 E4.3533
G1 X64.857 Y101.667 E4.37654
G1 X64.243 Y101.475 E4.39794
G1 X63.609 Y101.255 E4.42026
G1 X63.073 Y101.05 E4.43935
G1 X62.28 Y100.715 E4.46798
G1 X61.76 Y100.471 E4.48709
G1 X61.246 Y100.213 E4.50621
G1 X60.42 Y99.749 E4.53772
G1 X59.68 Y99.29 E4.56669
G1 X59.075 Y98.886 E4.59088
G1 X58.539 Y98.499 E4.61287
G1 X57.993 Y98.078 E4.6358
G1 X57.586 Y97.744 E4.65332
G1 X57.044 Y97.272 E4.67722
G1 X56.405 Y96.657 E4.70672
G1 X55.856 Y96.084 E4.73311
G1 X55.337 Y95.502 E4.75905
G1 X54.899 Y94.973 E4.78189
G1 X54.468 Y94.417 E4.80529
G1 X54.163 Y93.995 E4.82261
G1 X53.767 Y93.406 E4.84621
G1 X53.426 Y92.861 E4.86759
G1 X53.104 Y92.311 E4.88879
G1 X52.824 Y91.797 E4.90826
G1 X52.511 Y91.176 E4.93139
G1 X52.259 Y90.63 E4.95139
G1 X51.996 Y90.012 E4.97373
G1 X51.77 Y89.427 E4.99459
G1 X51.538 Y88.771 E5.01773
G1 X51.361 Y88.205 E5.03746
G1 X51.185 Y87.578 E5.05912
G1 X51.047 Y87.022 E5.07817
G1 X50.901 Y86.342 E5.1013
G1 X50.791 Y85.726 E5.12211
G1 X50.692 Y85.039 E5.1452
G1 X50.619 Y84.402 E5.16652
G1 X50.565 Y83.732 E5.18888
G1 X50.541 Y83.218 E5.206
G1 X50.53 Y82.555 E5.22805
G1 X50.539 Y81.868 E5.2509
G1 X50.571 Y81.185 E5.27364
G1 X50.612 Y80.661 E5.29113
G1 X50.688 Y79.984 E5.31378
G1 X50.778 Y79.36 E5.33475
G1 X50.894 Y78.699 E5.35707
G1 X51.023 Y78.084 E5.37797
G1 X51.187 Y77.412 E5.40098
G1 X51.344 Y76.847 E5.42048
G1 X51.544 Y76.212 E5.44263
G1 X51.738 Y75.656 E5.46221
G1 X51.988 Y75.006 E5.48538
G1 X52.231 Y74.432 E5.50611
G1 X52.505 Y73.837 E5.5279
G1 X52.773 Y73.298 E5.54792
G1 X53.115 Y72.666 E5.57182
G1 X53.393 Y72.191 E5.59012
G1 X53.724 Y71.661 E5.61091
G1 X54.116 Y71.075 E5.63436
G1 X54.541 Y70.483 E5.65859
G1 X54.813 Y70.131 E5.67339
G1 X55.226 Y69.629 E5.69501
G1 X55.701 Y69.086 E5.71901
G1 X56.169 Y68.585 E5.74181
G1 X56.609 Y68.143 E5.76255
G1 X57.203 Y67.591 E5.78952
G1 X57.653 Y67.203 E5.80928
G0 F6000 X57.906 Y67.513
G1 F1200 X58.321 Y67.175 E5.82709
G1 X58.719 Y66.866 E5.84384
G1 X59.264 Y66.472 E5.86621
G1 X59.823 Y66.094 E5.88866
G1 X60.41 Y65.724 E5.91173
G1 X60.935 Y65.418 E5.93195
G1 X61.5 Y65.111 E5.95333
G1 X62.061 Y64.829 E5.97422
G1 X62.845 Y64.474 E6.00284
G1 X63.379 Y64.259 E6.02199
G1 X63.86 Y64.078 E6.03908
G1 X64.321 Y63.918 E6.05531
G1 X64.94 Y63.725 E6.07688
G1 X65.566 Y63.55 E6.0985
G1 X66.27 Y63.38 E6.12258
G1 X66.961 Y63.238 E6.14605
G1 X67.734 Y63.11 E6.17211
G1 X68.333 Y63.034 E6.19219
G1 X68.949 Y62.975 E6.21277
G1 X69.843 Y62.927 E6.24255
G1 X70.848 Y62.914 E6.27598
G1 X72.276 Y62.934 E6.32348
G1 X74.863 Y62.934 E6.40952
G1 X77.401 Y62.861 E6.49397
G1 X79.94 Y62.718 E6.57855
G1 X82.464 Y62.503 E6.66281
G1 X84.94 Y62.221 E6.74569
G1 X87.553 Y61.849 E6.83348
G1 X89.337 Y61.568 E6.89354
G1 X90.145 Y61.464 E6.92064
G1 X91.118 Y61.379 E6.95312
G1 X91.892 Y61.342 E6.9789
G1 X92.699 Y61.335 E7.00574
G1 X93.493 Y61.358 E7.03216
G1 X93.93 Y61.384 E7.04672
G1 X94.72 Y61.453 E7.07309
G1 X95.566 Y61.559 E7.10145
G1 X96.451 Y61.707 E7.1313
G1 X97.209 Y61.866 E7.15706
G1 X98.035 Y62.073 E7.18538
G1 X98.48 Y62.2 E7.20077
G1 X99.232 Y62.438 E7.227
G1 X100.09 Y62.749 E7.25736
G1 X100.491 Y62.906 E7.27168
G1 X101.234 Y63.225 E7.29858
G1 X101.739 Y63.459 E7.31709
G1 X102.458 Y63.826 E7.34394
G1 X103.332 Y64.324 E7.37739
G1 X103.773 Y64.594 E7.39459
G1 X104.399 Y65.004 E7.41948
G1 X105.076 Y65.484 E7.44708
G1 X105.433 Y65.754 E7.46197
G1 X106.138 Y66.32 E7.49204
G1 X106.531 Y66.656 E7.50924
G1 X107.198 Y67.279 E7.53959
G1 X107.855 Y67.947 E7.57076
G1 X108.356 Y68.495 E7.59545
G1 X108.755 Y68.963 E7.61591
G1 X109.253 Y69.584 E7.64238
G1 X109.724 Y70.219 E7.66868
G1 X109.955 Y70.549 E7.68208
G1 X110.399 Y71.227 E7.70903
G1 X110.694 Y71.707 E7.72777
G1 X111.033 Y72.304 E7.75061
G1 X111.383 Y72.968 E7.77557
G1 X111.623 Y73.455 E7.79363
G1 X111.931 Y74.138 E7.81855
G1 X112.27 Y74.974 E7.84855
G1 X112.417 Y75.37 E7.8626
G1 X112.672 Y76.129 E7.88923
G1 X112.977 Y77.18 E7.92563
G1 X113.173 Y78 E7.95367
G1 X113.365 Y79.015 E7.98803
G1 X113.466 Y79.662 E8.00981
G1 X113.56 Y80.47 E8.03687
G1 X113.626 Y81.397 E8.06778
G1 X113.655 Y82.123 E8.09194
G1 X113.654 Y82.991 E8.12081
G1 X113.613 Y83.819 E8.14839
G1 X113.534 Y84.725 E8.17863
G1 X113.475 Y85.228 E8.19548
G1 X113.354 Y86.042 E8.22285
G1 X113.212 Y86.804 E8.24863
G1 X113.118 Y87.235 E8.2633
G1 X112.923 Y88.011 E8.28992
G1 X112.793 Y88.474 E8.30591
G1 X112.564 Y89.204 E8.33136
G1 X112.159 Y90.322 E8.37091
G1 X111.834 Y91.101 E8.39898
G1 X111.534 Y91.744 E8.42258
G1 X111.17 Y92.452 E8.44906
G1 X110.617 Y93.417 E8.48605
G1 X110.18 Y94.112 E8.51336
G1 X109.904 Y94.523 E8.52982
G1 X109.483 Y95.107 E8.55377
G1 X108.931 Y95.82 E8.58376
G1 X108.594 Y96.232 E8.60146
G1 X108.265 Y96.614 E8.61823
G1 X107.727 Y97.194 E8.64454
G1 X107.12 Y97.799 E8.67305
G1 X106.515 Y98.357 E8.70042
G1 X105.897 Y98.883 E8.72741
G1 X105.25 Y99.39 E8.75475
G1 X104.48 Y99.947 E8.78636
G1 X103.735 Y100.438 E8.81604
G1 X103.093 Y100.823 E8.84093
G1 X102.442 Y101.182 E8.86566
G1 X101.573 Y101.614 E8.89794
G1 X100.75 Y101.984 E8.92795
G1 X100.167 Y102.224 E8.94892
G1 X99.321 Y102.537 E8.97892
G1 X98.652 Y102.75 E9.00227
G1 X97.952 Y102.947 E9.02646
G1 X97.358 Y103.096 E9.04683
G1 X96.656 Y103.249 E9.07073
G1 X96.067 Y103.36 E9.09066
G1 X95.528 Y103.446 E9.10881
G1 X94.808 Y103.54 E9.13297
G1 X93.857 Y103.622 E9.16471
G1 X92.795 Y103.668 E9.20007
G1 X92.006 Y103.667 E9.22631
G1 X91.196 Y103.627 E9.25328
G1 X90.548 Y103.576 E9.2749
G1 X89.56 Y103.465 E9.30797
G1 X89.163 Y103.41 E9.3213
G1 X86.572 Y103 E9.40855
G1 X84.04 Y102.665 E9.4935
G1 X81.49 Y102.4 E9.57877
G1 X79.02 Y102.214 E9.66115
G1 X76.443 Y102.093 E9.74696
G1 X73.947 Y102.047 E9.82999
G1 X71.809 Y102.062 E9.9011
G1 X70.572 Y102.084 E9.94225
G1 X69.907 Y102.075 E9.96437
G1 X69.287 Y102.046 E9.98502
G1 X68.627 Y101.995 E10.00703
G1 X68.115 Y101.938 E10.02417
G1 X67.45 Y101.842 E10.04652
G1 X66.773 Y101.723 E10.06938
G1 X66.118 Y101.586 E10.09163
G1 X65.625 Y101.466 E10.10851
G1 X64.976 Y101.285 E10.13092
G1 X64.374 Y101.097 E10.1519
G1 X63.752 Y100.882 E10.17379
G1 X63.228 Y100.681 E10.19245
G1 X62.45 Y100.353 E10.22053
G1 X61.939 Y100.113 E10.23931
G1 X61.442 Y99.864 E10.2578
G1 X60.631 Y99.409 E10.28873
G1 X59.902 Y98.957 E10.31726
G1 X59.309 Y98.561 E10.34097
G1 X58.783 Y98.182 E10.36254
G1 X58.247 Y97.769 E10.38504
G1 X57.849 Y97.442 E10.40218
G1 X57.307 Y96.97 E10.42608
G1 X56.694 Y96.38 E10.45438
G1 X56.145 Y95.807 E10.48077
G1 X55.645 Y95.247 E10.50574
G1 X55.215 Y94.728 E10.52816
G1 X54.792 Y94.183 E10.5511
G1 X54.495 Y93.772 E10.56797
G1 X54.106 Y93.194 E10.59114
G1 X53.771 Y92.659 E10.61214
G1 X53.455 Y92.12 E10.63292
G1 X53.181 Y91.617 E10.65197
G1 X52.874 Y91.008 E10.67465
G1 X52.627 Y90.474 E10.69422
G1 X52.369 Y89.867 E10.71616
G1 X52.147 Y89.294 E10.7366
G1 X51.92 Y88.651 E10.75928
G1 X51.746 Y88.097 E10.77859
G1 X51.573 Y87.481 E10.79987
G1 X51.438 Y86.938 E10.81848
G1 X51.295 Y86.271 E10.84117
G1 X51.187 Y85.669 E10.86151
G1 X51.089 Y84.994 E10.8842
G1 X51.018 Y84.37 E10.90509
G1 X50.965 Y83.713 E10.92701
G1 X50.941 Y83.211 E10.94373
G1 X50.93 Y82.56 E10.96538
G1 X50.939 Y81.886 E10.9878
G1 X50.97 Y81.216 E11.01011
G1 X51.01 Y80.705 E11.02716
G1 X51.084 Y80.041 E11.04938
G1 X51.172 Y79.429 E11.06994
G1 X51.286 Y78.781 E11.09183
G1 X51.412 Y78.179 E11.11228
G1 X51.576 Y77.507 E11.13529
G1 X51.726 Y76.967 E11.15393
G1 X51.922 Y76.344 E11.17565
G1 X52.116 Y75.788 E11.19524
G1 X52.356 Y75.162 E11.21754
G1 X52.594 Y74.599 E11.23787
G1 X52.863 Y74.015 E11.25925
G1 X53.125 Y73.488 E11.27883
G1 X53.46 Y72.868 E11.30227
G1 X53.732 Y72.403 E11.32018
G1 X54.057 Y71.883 E11.34058
G1 X54.441 Y71.308 E11.36358
G1 X54.858 Y70.727 E11.38736
G1 X55.122 Y70.385 E11.40173
G1 X55.527 Y69.892 E11.42295
G1 X55.993 Y69.359 E11.4465
G1 X56.452 Y68.867 E11.46888
G1 X56.881 Y68.436 E11.48911
G1 X57.464 Y67.894 E11.51558
G1 X57.906 Y67.513 E11.53499
G0 F6000 X58.159 Y67.823
G1 F1200 X58.566 Y67.491 E11.55246
G1 X58.954 Y67.19 E11.56879
G1 X59.488 Y66.803 E11.59073
G1 X60.036 Y66.432 E11.61274
G1 X60.612 Y66.069 E11.63538
G1 X61.126 Y65.769 E11.65518
G1 X61.68 Y65.468 E11.67615
G1 X62.226 Y65.193 E11.69648
G1 X62.995 Y64.845 E11.72456
G1 X63.52 Y64.633 E11.74339
G1 X63.991 Y64.456 E11.76012
G1 X64.44 Y64.3 E11.77593
G1 X65.047 Y64.11 E11.79709
G1 X65.66 Y63.939 E11.81825
G1 X66.35 Y63.772 E11.84187
G1 X67.027 Y63.633 E11.86485
G1 X67.785 Y63.507 E11.89041
G1 X68.372 Y63.432 E11.91009
G1 X68.97 Y63.374 E11.93007
G1 X69.848 Y63.327 E11.95932
G1 X70.842 Y63.314 E11.99238
G1 X72.27 Y63.334 E12.03988
G1 X74.875 Y63.334 E12.12652
G1 X77.413 Y63.261 E12.21097
G1 X79.974 Y63.116 E12.29629
G1 X82.498 Y62.901 E12.38054
G1 X84.996 Y62.617 E12.46416
G1 X87.609 Y62.245 E12.55195
G1 X89.388 Y61.965 E12.61184
G1 X90.196 Y61.861 E12.63894
G1 X91.137 Y61.779 E12.67036
G1 X91.896 Y61.742 E12.69563
G1 X92.688 Y61.735 E12.72197
G1 X93.47 Y61.757 E12.74799
G1 X93.895 Y61.782 E12.76215
G1 X94.67 Y61.85 E12.78803
G1 X95.5 Y61.954 E12.81585
G1 X96.369 Y62.099 E12.84515
G1 X97.112 Y62.254 E12.8704
G1 X97.926 Y62.458 E12.89831
G1 X98.359 Y62.581 E12.91328
G1 X99.096 Y62.814 E12.93899
G1 X99.944 Y63.121 E12.96899
G1 X100.333 Y63.274 E12.98289
G1 X101.066 Y63.588 E13.00941
G1 X101.557 Y63.815 E13.0274
G1 X102.26 Y64.173 E13.05364
G1 X103.123 Y64.665 E13.08668
G1 X103.554 Y64.929 E13.10349
G1 X104.168 Y65.33 E13.12788
G1 X104.835 Y65.803 E13.15508
G1 X105.183 Y66.066 E13.16959
G1 X105.878 Y66.624 E13.19923
G1 X106.258 Y66.948 E13.21584
G1 X106.913 Y67.559 E13.24563
G1 X107.56 Y68.217 E13.27633
G1 X108.052 Y68.754 E13.30055
G1 X108.443 Y69.213 E13.3206
G1 X108.932 Y69.822 E13.34658
G1 X109.396 Y70.448 E13.3725
G1 X109.62 Y70.768 E13.38549
G1 X110.058 Y71.436 E13.41206
G1 X110.346 Y71.905 E13.43036
G1 X110.679 Y72.49 E13.45275
G1 X111.024 Y73.145 E13.47737
G1 X111.258 Y73.62 E13.49499
G1 X111.56 Y74.289 E13.5194
G1 X111.895 Y75.113 E13.54898
G1 X112.038 Y75.498 E13.56264
G1 X112.288 Y76.241 E13.58872
G1 X112.588 Y77.273 E13.62446
G1 X112.78 Y78.075 E13.65189
G1 X112.97 Y79.077 E13.68581
G1 X113.069 Y79.708 E13.70706
G1 X113.161 Y80.498 E13.73351
G1 X113.226 Y81.413 E13.76402
G1 X113.255 Y82.123 E13.78765
G1 X113.254 Y82.971 E13.81586
G1 X113.214 Y83.785 E13.84296
G1 X113.137 Y84.678 E13.87278
G1 X113.079 Y85.17 E13.88925
G1 X112.961 Y85.969 E13.91612
G1 X112.821 Y86.719 E13.94149
G1 X112.73 Y87.138 E13.95575
G1 X112.538 Y87.903 E13.98199
G1 X112.411 Y88.355 E13.9976
G1 X112.188 Y89.068 E14.02245
G1 X111.79 Y90.168 E14.06136
G1 X111.471 Y90.932 E14.08889
G1 X111.178 Y91.561 E14.11197
G1 X110.823 Y92.253 E14.13784
G1 X110.278 Y93.204 E14.1743
G1 X109.841 Y93.899 E14.2016
G1 X109.58 Y94.289 E14.21721
G1 X109.167 Y94.862 E14.2407
G1 X108.621 Y95.567 E14.27036
G1 X108.291 Y95.971 E14.28771
G1 X107.972 Y96.342 E14.30399
G1 X107.444 Y96.911 E14.3298
G1 X106.849 Y97.505 E14.35777
G1 X106.256 Y98.052 E14.3846
G1 X105.65 Y98.568 E14.41107
G1 X105.016 Y99.066 E14.43789
G1 X104.26 Y99.613 E14.46892
G1 X103.529 Y100.095 E14.49805
G1 X102.899 Y100.473 E14.52248
G1 X102.264 Y100.824 E14.54661
