;FLAVOR:Marlin
;TIME:2031
;Filament used: 1.50986m
;Layer height: 0.16
;MINX:43.213
;MINY:43.217
;MINZ:0.2
;MAXX:121.782
;MAXY:121.783
;MAXZ:3.96
;TARGET_MACHINE.NAME:Creality Ender-2
;Generated with Cura_SteamEngine 5.7.2
M140 S60
M105
M190 S60
M104 S210
M105
M109 S210
M82 ;absolute extrusion mode
M201 X500.00 Y500.00 Z100.00 E5000.00 ;Setup machine max acceleration
M203 X500.00 Y500.00 Z10.00 E50.00 ;Setup machine max feedrate
M204 P500.00 R1000.00 T500.00 ;Setup Print/Retract/Travel acceleration
M205 X8.00 Y8.00 Z0.40 E5.00 ;Setup Jerk
M220 S100 ;Reset Feedrate
M221 S100 ;Reset Flowrate

G28 ;Home

G92 E0 ;Reset Extruder
G1 Z2.0 F3000 ;Move Z Axis up
G1 X10.1 Y20 Z0.28 F5000.0 ;Move to start position
G1 X10.1 Y100.0 Z0.28 F1500.0 E8 ;Draw the first line
G1 X10.4 Y100.0 Z0.28 F5000.0 ;Move to side a little
G1 X10.4 Y20 Z0.28 F1500.0 E15 ;Draw the second line
G92 E0 ;Reset Extruder
G1 Z2.0 F3000 ;Move Z Axis up

G92 E0
G92 E0
G1 F2700 E-5
;LAYER_COUNT:21
;LAYER:0
M107
G0 F6000 X48.756 Y49.508 Z0.2
;TYPE:SKIRT
G1 F2700 E0
G1 F1200 X49.411 Y48.868 E0.03046
G1 X50.007 Y48.337 E0.05701
G1 X50.764 Y47.722 E0.08945
G1 X51.577 Y47.174 E0.12206
G1 X52.216 Y46.787 E0.1469
G1 X53.039 Y46.338 E0.17809
G1 X53.932 Y45.946 E0.21052
G1 X54.626 Y45.679 E0.23526
G1 X55.55 Y45.372 E0.26764
G1 X56.503 Y45.145 E0.30022
G1 X57.275 Y44.999 E0.32635
G1 X58.202 Y44.867 E0.3575
G1 X59.117 Y44.813 E0.38798
G1 X59.938 Y44.8 E0.41529
G1 X62.314 Y44.799 E0.49432
G1 X64.898 Y44.762 E0.58027
G1 X67.466 Y44.653 E0.66576
G1 X69.94 Y44.478 E0.74825
G1 X72.427 Y44.232 E0.83137
G1 X76.027 Y43.749 E0.95218
G1 X77.201 Y43.576 E0.99165
G1 X78.5 Y43.422 E1.03516
G1 X79.697 Y43.309 E1.07515
G1 X80.292 Y43.27 E1.09498
G1 X81.64 Y43.225 E1.13984
G1 X82.603 Y43.217 E1.17187
G1 X84.018 Y43.247 E1.21895
G1 X85.412 Y43.317 E1.26537
G1 X85.993 Y43.365 E1.28476
G1 X87.617 Y43.547 E1.33911
G1 X88.149 Y43.619 E1.35697
G1 X89.529 Y43.847 E1.40349
G1 X90.415 Y44.013 E1.43347
G1 X90.962 Y44.13 E1.45207
G1 X92.1 Y44.407 E1.49103
G1 X92.999 Y44.639 E1.52191
G1 X93.478 Y44.775 E1.53847
G1 X94.533 Y45.104 E1.57523
G1 X95.562 Y45.447 E1.6113
G1 X96 Y45.604 E1.62678
G1 X97.125 Y46.039 E1.6669
G1 X97.888 Y46.35 E1.6943
G1 X98.889 Y46.794 E1.73072
G1 X100.263 Y47.456 E1.78145
G1 X100.805 Y47.735 E1.80173
G1 X101.981 Y48.386 E1.84643
G1 X102.795 Y48.867 E1.87788
G1 X104.098 Y49.688 E1.9291
G1 X104.901 Y50.22 E1.96114
G1 X105.391 Y50.565 E1.98107
G1 X106.217 Y51.184 E2.0154
G1 X107.164 Y51.917 E2.05523
G1 X107.604 Y52.277 E2.07414
G1 X108.599 Y53.138 E2.11791
G1 X109.205 Y53.689 E2.14515
G1 X110.107 Y54.555 E2.18674
G1 X110.822 Y55.276 E2.22051
G1 X111.12 Y55.592 E2.23496
G1 X112.427 Y57.048 E2.30003
G1 X113.028 Y57.769 E2.33125
G1 X113.679 Y58.6 E2.36636
G1 X114.61 Y59.862 E2.41852
G1 X115.212 Y60.743 E2.45401
G1 X115.792 Y61.631 E2.48929
G1 X116.096 Y62.125 E2.50858
G1 X116.797 Y63.344 E2.55535
G1 X117.2 Y64.074 E2.58309
G1 X117.441 Y64.537 E2.60045
G1 X118.149 Y65.992 E2.65426
G1 X118.612 Y67.022 E2.69182
G1 X118.905 Y67.738 E2.71756
G1 X119.405 Y69.031 E2.76366
G1 X119.635 Y69.671 E2.78628
G1 X120.203 Y71.464 E2.84884
G1 X120.314 Y71.84 E2.86188
G1 X120.524 Y72.632 E2.88913
G1 X120.913 Y74.254 E2.94461
G1 X121.041 Y74.858 E2.96514
G1 X121.248 Y76.018 E3.00434
G1 X121.409 Y77.059 E3.03937
G1 X121.532 Y78.053 E3.07268
G1 X121.661 Y79.321 E3.11508
G1 X121.702 Y79.867 E3.13329
G1 X121.754 Y81.039 E3.17231
G1 X121.782 Y82.406 E3.21778
G1 X121.782 Y82.861 E3.23292
G1 X121.748 Y84.181 E3.27683
G1 X121.694 Y85.229 E3.31174
G1 X121.654 Y85.742 E3.32885
G1 X121.492 Y87.339 E3.38224
G1 X121.429 Y87.839 E3.399
G1 X121.03 Y90.502 E3.48856
G1 X120.727 Y93.001 E3.57229
G1 X120.493 Y95.529 E3.65673
G1 X120.334 Y98.024 E3.73988
G1 X120.244 Y100.559 E3.82425
G1 X120.223 Y102.457 E3.88738
G1 X120.222 Y104.749 E3.96361
G1 X120.208 Y105.555 E3.99042
G1 X120.168 Y106.322 E4.01597
G1 X120.113 Y106.936 E4.03647
G1 X119.985 Y107.885 E4.06832
G1 X119.879 Y108.406 E4.08601
G1 X119.689 Y109.179 E4.11248
G1 X119.572 Y109.594 E4.12682
G1 X119.103 Y110.924 E4.17373
G1 X118.956 Y111.267 E4.18614
G1 X118.634 Y111.96 E4.21156
G1 X118.099 Y112.933 E4.24849
G1 X117.691 Y113.571 E4.27368
G1 X117.457 Y113.914 E4.28749
G1 X116.917 Y114.638 E4.31753
G1 X116.465 Y115.16 E4.34049
G1 X116.016 Y115.647 E4.36252
G1 X115.35 Y116.306 E4.39369
G1 X114.631 Y116.907 E4.42485
G1 X114.074 Y117.332 E4.44816
G1 X113.262 Y117.893 E4.48098
G1 X112.543 Y118.309 E4.50861
G1 X111.874 Y118.661 E4.53375
G1 X110.99 Y119.074 E4.56621
G1 X110.034 Y119.421 E4.60003
G1 X109.419 Y119.611 E4.62144
G1 X108.546 Y119.84 E4.65146
G1 X107.844 Y119.97 E4.67521
G1 X107.245 Y120.061 E4.69536
G1 X105.916 Y120.174 E4.73972
G1 X104.594 Y120.199 E4.7837
G1 X102.699 Y120.199 E4.84673
G1 X100.115 Y120.236 E4.93268
G1 X97.547 Y120.345 E5.01817
G1 X95.081 Y120.52 E5.10039
G1 X92.597 Y120.766 E5.18342
G1 X88.941 Y121.256 E5.3061
G1 X87.897 Y121.409 E5.3412
G1 X86.163 Y121.613 E5.39927
G1 X85.299 Y121.692 E5.42812
G1 X84.707 Y121.73 E5.44785
G1 X83.448 Y121.772 E5.48975
G1 X82.314 Y121.783 E5.52747
G1 X80.895 Y121.754 E5.57468
G1 X79.917 Y121.708 E5.60724
G1 X79.42 Y121.671 E5.62382
G1 X78.092 Y121.539 E5.6682
G1 X77.363 Y121.454 E5.69262
G1 X76.865 Y121.385 E5.70934
G1 X75.529 Y121.161 E5.75439
G1 X74.636 Y120.996 E5.7846
G1 X74.058 Y120.874 E5.80424
G1 X72.514 Y120.496 E5.85712
G1 X71.65 Y120.263 E5.88688
G1 X70.952 Y120.051 E5.91114
G1 X69.411 Y119.548 E5.96506
G1 X68.842 Y119.34 E5.98521
G1 X67.819 Y118.939 E6.02175
G1 X66.726 Y118.486 E6.0611
G1 X66.059 Y118.179 E6.08553
G1 X64.58 Y117.466 E6.14014
G1 X63.949 Y117.132 E6.16388
G1 X62.669 Y116.418 E6.21263
G1 X62.292 Y116.196 E6.22718
G1 X61.544 Y115.731 E6.25648
G1 X60.29 Y114.908 E6.30636
G1 X59.927 Y114.657 E6.32104
G1 X59.214 Y114.142 E6.3503
G1 X58.382 Y113.513 E6.38499
G1 X57.677 Y112.957 E6.41485
G1 X57.268 Y112.616 E6.43256
G1 X56.199 Y111.683 E6.47975
G1 X55.868 Y111.383 E6.49461
G1 X55.05 Y110.605 E6.53216
G1 X54.075 Y109.623 E6.57818
G1 X53.393 Y108.888 E6.61153
G1 X52.367 Y107.715 E6.66337
G1 X52.019 Y107.294 E6.68153
G1 X51.298 Y106.373 E6.72044
G1 X50.457 Y105.234 E6.76753
G1 X49.84 Y104.336 E6.80376
G1 X49.334 Y103.56 E6.83458
G1 X49.102 Y103.186 E6.84922
G1 X48.29 Y101.813 E6.90227
G1 X47.846 Y101.012 E6.93273
G1 X47.617 Y100.577 E6.94908
G1 X47.015 Y99.359 E6.99427
G1 X46.671 Y98.627 E7.02117
G1 X46.439 Y98.1 E7.04032
G1 X45.76 Y96.426 E7.10041
G1 X45.566 Y95.909 E7.11877
G1 X45.289 Y95.101 E7.14718
G1 X44.742 Y93.368 E7.20762
G1 X44.566 Y92.735 E7.22948
G1 X44.243 Y91.441 E7.27384
G1 X43.964 Y90.137 E7.31819
G1 X43.699 Y88.686 E7.36725
G1 X43.605 Y88.075 E7.38781
G1 X43.457 Y86.871 E7.42815
G1 X43.353 Y85.84 E7.46262
G1 X43.279 Y84.793 E7.49753
G1 X43.222 Y83.412 E7.5435
G1 X43.213 Y82.862 E7.5618
G1 X43.225 Y81.632 E7.60271
G1 X43.261 Y80.531 E7.63935
G1 X43.298 Y79.853 E7.66193
G1 X43.477 Y77.933 E7.72607
G1 X43.541 Y77.404 E7.74379
G1 X43.994 Y74.192 E7.85168
G1 X44.281 Y71.631 E7.93739
G1 X44.488 Y69.155 E8.02003
G1 X44.623 Y66.679 E8.10251
G1 X44.699 Y62.907 E8.22799
G1 X44.7 Y60.065 E8.32251
G1 X44.712 Y59.35 E8.3463
G1 X44.778 Y58.322 E8.38056
G1 X44.865 Y57.629 E8.40379
G1 X44.93 Y57.205 E8.41806
G1 X45.111 Y56.291 E8.44905
G1 X45.294 Y55.627 E8.47196
G1 X45.51 Y54.938 E8.49597
G1 X45.842 Y54.021 E8.52841
G1 X46.247 Y53.155 E8.56021
G1 X46.611 Y52.46 E8.5863
G1 X47.065 Y51.679 E8.61635
G1 X47.676 Y50.815 E8.65154
G1 X48.121 Y50.246 E8.67557
G1 X48.756 Y49.508 E8.70795
G0 F6000 X49.036 Y49.794
G1 F1200 X49.691 Y49.154 E8.73841
G1 X50.259 Y48.647 E8.76373
G1 X50.988 Y48.054 E8.79499
G1 X51.801 Y47.506 E8.8276
G1 X52.408 Y47.138 E8.85121
G1 X53.231 Y46.689 E8.88239
G1 X54.076 Y46.319 E8.91307
G1 X54.753 Y46.058 E8.9372
G1 X55.643 Y45.761 E8.96841
G1 X56.577 Y45.538 E9.00035
G1 X57.332 Y45.395 E9.0259
G1 X58.226 Y45.266 E9.05595
G1 X59.123 Y45.213 E9.08583
G1 X59.938 Y45.2 E9.11294
G1 X62.32 Y45.199 E9.19217
G1 X64.915 Y45.162 E9.27849
G1 X67.483 Y45.053 E9.36398
G1 X69.971 Y44.877 E9.44693
G1 X72.466 Y44.63 E9.53032
G1 X76.086 Y44.145 E9.6518
G1 X77.248 Y43.973 E9.69087
G1 X78.538 Y43.82 E9.73408
G1 X79.723 Y43.708 E9.77367
G1 X80.305 Y43.67 E9.79306
G1 X81.643 Y43.625 E9.83759
G1 X82.595 Y43.617 E9.86926
G1 X83.998 Y43.646 E9.91593
G1 X85.379 Y43.716 E9.96192
G1 X85.949 Y43.763 E9.98094
G1 X87.563 Y43.943 E10.03496
G1 X88.084 Y44.014 E10.05245
G1 X89.455 Y44.24 E10.09866
G1 X90.331 Y44.404 E10.1283
G1 X90.868 Y44.519 E10.14657
G1 X92 Y44.794 E10.18532
G1 X92.89 Y45.024 E10.21589
G1 X93.359 Y45.157 E10.2321
G1 X94.407 Y45.483 E10.26861
G1 X95.427 Y45.823 E10.30437
G1 X95.856 Y45.977 E10.31953
G1 X96.974 Y46.41 E10.35941
G1 X97.726 Y46.716 E10.38641
G1 X98.727 Y47.16 E10.42283
G1 X100.08 Y47.811 E10.47277
G1 X100.611 Y48.085 E10.49264
G1 X101.778 Y48.731 E10.53701
G1 X102.582 Y49.205 E10.56805
G1 X103.877 Y50.021 E10.61896
G1 X104.671 Y50.547 E10.65064
G1 X105.151 Y50.885 E10.67016
G1 X105.972 Y51.5 E10.70428
G1 X106.911 Y52.226 E10.74376
G1 X107.342 Y52.579 E10.76229
G1 X108.33 Y53.434 E10.80575
G1 X108.928 Y53.978 E10.83263
G1 X109.823 Y54.837 E10.87389
G1 X110.531 Y55.551 E10.90734
G1 X110.822 Y55.859 E10.92143
G1 X112.12 Y57.304 E10.98603
G1 X112.713 Y58.016 E11.01685
G1 X113.357 Y58.837 E11.05156
G1 X114.28 Y60.088 E11.10327
G1 X114.877 Y60.962 E11.13847
G1 X115.451 Y61.841 E11.17339
G1 X115.749 Y62.325 E11.19229
G1 X116.447 Y63.538 E11.23884
G1 X116.845 Y64.258 E11.2662
G1 X117.081 Y64.712 E11.28322
G1 X117.784 Y66.156 E11.33664
G1 X118.242 Y67.174 E11.37376
G1 X118.532 Y67.882 E11.39921
G1 X119.029 Y69.166 E11.445
G1 X119.254 Y69.792 E11.46713
G1 X119.819 Y71.577 E11.5294
G1 X119.927 Y71.943 E11.54209
G1 X120.135 Y72.725 E11.56901
G1 X120.522 Y74.337 E11.62415
G1 X120.647 Y74.929 E11.64427
G1 X120.853 Y76.079 E11.68313
G1 X121.012 Y77.108 E11.71776
G1 X121.134 Y78.093 E11.75077
G1 X121.262 Y79.351 E11.79283
G1 X121.302 Y79.885 E11.81064
G1 X121.354 Y81.047 E11.84933
G1 X121.382 Y82.414 E11.8948
G1 X121.382 Y82.851 E11.90934
G1 X121.349 Y84.16 E11.95289
G1 X121.295 Y85.198 E11.98746
G1 X121.256 Y85.702 E12.00427
G1 X121.095 Y87.289 E12.05733
G1 X121.033 Y87.78 E12.07379
G1 X120.634 Y90.443 E12.16335
G1 X120.33 Y92.953 E12.24744
G1 X120.095 Y95.492 E12.33225
G1 X119.934 Y98.01 E12.41617
G1 X119.844 Y100.545 E12.50054
G1 X119.823 Y102.453 E12.564
G1 X119.822 Y104.742 E12.64013
G1 X119.809 Y105.534 E12.66648
G1 X119.77 Y106.287 E12.69156
G1 X119.717 Y106.883 E12.71146
G1 X119.593 Y107.805 E12.7424
G1 X119.49 Y108.311 E12.75958
G1 X119.304 Y109.07 E12.78557
G1 X119.187 Y109.485 E12.79991
G1 X118.735 Y110.767 E12.84512
G1 X118.593 Y111.099 E12.85713
G1 X118.283 Y111.767 E12.88162
G1 X117.748 Y112.74 E12.91855
G1 X117.36 Y113.346 E12.94249
G1 X117.136 Y113.675 E12.95573
G1 X116.596 Y114.399 E12.98577
G1 X116.171 Y114.889 E13.00734
G1 X115.734 Y115.363 E13.02878
G1 X115.093 Y115.999 E13.05882
G1 X114.388 Y116.589 E13.08939
G1 X113.846 Y117.003 E13.11208
G1 X113.061 Y117.547 E13.14384
G1 X112.357 Y117.955 E13.17091
G1 X111.704 Y118.299 E13.19545
G1 X110.853 Y118.698 E13.22672
G1 X109.916 Y119.039 E13.25988
G1 X109.318 Y119.224 E13.2807
G1 X108.445 Y119.453 E13.31072
G1 X107.784 Y119.575 E13.33307
G1 X107.211 Y119.662 E13.35235
G1 X105.882 Y119.775 E13.39671
G1 X104.587 Y119.799 E13.43979
G1 X102.693 Y119.799 E13.50279
G1 X100.098 Y119.836 E13.58911
G1 X97.53 Y119.945 E13.67459
G1 X95.046 Y120.121 E13.75742
G1 X92.557 Y120.368 E13.84061
G1 X88.883 Y120.86 E13.9639
G1 X87.85 Y121.012 E13.99863
G1 X86.127 Y121.215 E14.05633
G1 X85.273 Y121.293 E14.08485
G1 X84.694 Y121.33 E14.10415
G1 X83.444 Y121.372 E14.14575
G1 X82.322 Y121.383 E14.18307
G1 X80.914 Y121.354 E14.22991
G1 X79.946 Y121.309 E14.26214
G1 X79.459 Y121.273 E14.27838
G1 X78.138 Y121.142 E14.32253
G1 X77.418 Y121.058 E14.34664
G1 X76.931 Y120.99 E14.363
G1 X75.602 Y120.768 E14.40781
G1 X74.719 Y120.605 E14.43768
G1 X74.153 Y120.485 E14.45692
G1 X72.618 Y120.11 E14.50948
G1 X71.766 Y119.88 E14.53883
G1 X71.076 Y119.671 E14.56281
G1 X69.549 Y119.173 E14.61623
G1 X68.988 Y118.967 E14.63611
G1 X67.972 Y118.57 E14.67239
G1 X66.893 Y118.122 E14.71124
G1 X66.233 Y117.819 E14.7354
G1 X64.767 Y117.113 E14.78952
G1 X64.144 Y116.783 E14.81297
G1 X62.872 Y116.073 E14.86142
G1 X62.503 Y115.856 E14.87566
G1 X61.764 Y115.397 E14.90459
G1 X60.517 Y114.578 E14.95421
G1 X60.161 Y114.333 E14.96859
G1 X59.455 Y113.823 E14.99755
G1 X58.63 Y113.199 E15.03196
G1 X57.933 Y112.65 E15.06147
G1 X57.531 Y112.315 E15.07887
G1 X56.468 Y111.387 E15.1258
G1 X56.144 Y111.093 E15.14036
G1 X55.334 Y110.323 E15.17753
G1 X54.368 Y109.351 E15.22311
G1 X53.694 Y108.625 E15.25605
G1 X52.675 Y107.46 E15.30753
G1 X52.334 Y107.048 E15.32532
G1 X51.62 Y106.135 E15.36387
G1 X50.787 Y105.008 E15.41048
G1 X50.175 Y104.117 E15.44644
G1 X49.674 Y103.349 E15.47693
G1 X49.446 Y102.982 E15.4913
G1 X48.64 Y101.619 E15.54397
G1 X48.2 Y100.826 E15.57413
G1 X47.976 Y100.4 E15.59014
G1 X47.377 Y99.189 E15.63508
G1 X47.037 Y98.466 E15.66165
G1 X46.81 Y97.95 E15.6804
G1 X46.134 Y96.285 E15.74017
G1 X45.944 Y95.779 E15.75815
G1 X45.67 Y94.981 E15.78621
G1 X45.127 Y93.261 E15.8462
G1 X44.954 Y92.638 E15.8677
G1 X44.634 Y91.357 E15.91162
G1 X44.357 Y90.065 E15.95557
G1 X44.094 Y88.625 E16.00426
G1 X44.002 Y88.026 E16.02441
G1 X43.855 Y86.831 E16.06446
G1 X43.752 Y85.812 E16.09852
G1 X43.679 Y84.776 E16.13307
G1 X43.622 Y83.405 E16.1787
G1 X43.613 Y82.866 E16.19663
G1 X43.625 Y81.645 E16.23725
G1 X43.66 Y80.553 E16.27359
G1 X43.696 Y79.89 E16.29567
G1 X43.874 Y77.981 E16.35944
G1 X43.937 Y77.46 E16.37689
G1 X44.392 Y74.237 E16.48515
G1 X44.679 Y71.676 E16.57087
G1 X44.886 Y69.188 E16.6539
G1 X45.023 Y66.687 E16.73721
G1 X45.099 Y62.915 E16.86269
G1 X45.1 Y60.071 E16.95729
G1 X45.111 Y59.375 E16.98044
G1 X45.175 Y58.371 E17.0139
G1 X45.26 Y57.689 E17.03676
G1 X45.322 Y57.283 E17.05042
G1 X45.497 Y56.397 E17.08046
G1 X45.676 Y55.746 E17.10291
G1 X45.886 Y55.074 E17.12633
G1 X46.205 Y54.19 E17.15759
G1 X46.601 Y53.341 E17.18874
G1 X46.957 Y52.661 E17.21427
G1 X47.411 Y51.88 E17.24432
G1 X47.991 Y51.061 E17.2777
G1 X48.425 Y50.506 E17.30113
G1 X49.036 Y49.794 E17.33234
G0 F6000 X49.316 Y50.08
G1 F1200 X49.971 Y49.44 E17.3628
G1 X50.512 Y48.957 E17.38692
G1 X51.212 Y48.386 E17.41696
G1 X52.009 Y47.848 E17.44895
G1 X52.6 Y47.489 E17.47194
G1 X53.392 Y47.055 E17.50198
G1 X54.22 Y46.692 E17.53205
G1 X54.88 Y46.437 E17.55558
G1 X55.736 Y46.15 E17.58561
G1 X56.652 Y45.931 E17.61694
G1 X57.389 Y45.791 E17.64189
G1 X58.283 Y45.662 E17.67193
G1 X59.129 Y45.613 E17.70012
G1 X59.938 Y45.6 E17.72703
G1 X62.326 Y45.599 E17.80645
G1 X64.932 Y45.562 E17.89314
G1 X67.5 Y45.453 E17.97863
G1 X70.002 Y45.276 E18.06205
G1 X72.505 Y45.028 E18.14571
G1 X76.145 Y44.541 E18.26785
G1 X77.295 Y44.37 E18.30652
G1 X78.576 Y44.218 E18.34943
G1 X79.749 Y44.107 E18.38862
G1 X80.319 Y44.07 E18.40762
G1 X81.646 Y44.025 E18.45178
G1 X82.587 Y44.017 E18.48308
G1 X83.978 Y44.045 E18.52935
G1 X85.346 Y44.115 E18.57491
G1 X85.905 Y44.161 E18.59357
G1 X87.509 Y44.339 E18.64724
G1 X88.019 Y44.409 E18.66436
G1 X89.381 Y44.633 E18.71027
G1 X90.247 Y44.795 E18.73958
G1 X90.774 Y44.908 E18.7575
G1 X91.9 Y45.181 E18.79604
G1 X92.781 Y45.409 E18.82631
G1 X93.24 Y45.539 E18.84217
G1 X94.281 Y45.862 E18.87842
G1 X95.292 Y46.199 E18.91387
G1 X95.712 Y46.35 E18.92871
G1 X96.823 Y46.78 E18.96834
G1 X97.564 Y47.082 E18.99495
G1 X98.554 Y47.521 E19.03097
G1 X99.896 Y48.166 E19.08049
G1 X100.417 Y48.435 E19.1
G1 X101.575 Y49.076 E19.14402
G1 X102.369 Y49.543 E19.17466
G1 X103.656 Y50.354 E19.22525
G1 X104.441 Y50.874 E19.25657
G1 X104.911 Y51.205 E19.27569
G1 X105.727 Y51.816 E19.3096
G1 X106.658 Y52.536 E19.34874
G1 X107.08 Y52.881 E19.36687
G1 X108.061 Y53.73 E19.41002
G1 X108.651 Y54.267 E19.43655
G1 X109.539 Y55.119 E19.47749
G1 X110.24 Y55.826 E19.5106
G1 X110.531 Y56.134 E19.52469
G1 X111.813 Y57.56 E19.58847
G1 X112.398 Y58.263 E19.61889
G1 X113.035 Y59.075 E19.65322
G1 X113.95 Y60.314 E19.70444
G1 X114.542 Y61.181 E19.73936
G1 X115.11 Y62.05 E19.77389
G1 X115.402 Y62.525 E19.79244
G1 X116.097 Y63.731 E19.83873
