;FLAVOR:Marlin
;TIME:7361
;Filament used: 6.57309m
;Layer height: 0.16
;MINX:0
;MINY:43.2
;MINZ:0.2
;MAXX:165
;MAXY:121.8
;MAXZ:3.8
;TARGET_MACHINE.NAME:Creality Ender-2
;Generated with Cura_SteamEngine 5.7.2
M140 S60
M105
M190 S60
M104 S210
M105
M109 S210
M82 ;absolute extrusion mode
M201 X500.00 Y500.00 Z100.00 E5000.00 ;Setup machine max acceleration
M203 X500.00 Y500.00 Z10.00 E50.00 ;Setup machine max feedrate
M204 P500.00 R1000.00 T500.00 ;Setup Print/Retract/Travel acceleration
M205 X8.00 Y8.00 Z0.40 E5.00 ;Setup Jerk
M220 S100 ;Reset Feedrate
M221 S100 ;Reset Flowrate

G28 ;Home

G92 E0 ;Reset Extruder
G1 Z2.0 F3000 ;Move Z Axis up
G1 X10.1 Y20 Z0.28 F5000.0 ;Move to start position
G1 X10.1 Y100.0 Z0.28 F1500.0 E8 ;Draw the first line
G1 X10.4 Y100.0 Z0.28 F5000.0 ;Move to side a little
G1 X10.4 Y20 Z0.28 F1500.0 E15 ;Draw the second line
G92 E0 ;Reset Extruder
G1 Z2.0 F3000 ;Move Z Axis up

G92 E0
G92 E0
G1 F2700 E-5
;LAYER_COUNT:19
;LAYER:0
M107
G0 F6000 X0.00 Y55.204 Z0.2
;TYPE:SKIRT
G1 F2700 E0
G1 F1200 X0.288 Y54.571 E0.02313
G1 X0.734 Y53.717 E0.05517
G1 X1.135 Y53.028 E0.08169
G1 X1.489 Y52.451 E0.1042
G1 X2.029 Y51.665 E0.13592
G1 X2.508 Y51.032 E0.16232
G1 X2.974 Y50.448 E0.18717
G1 X3.592 Y49.751 E0.21816
G1 X4.366 Y48.957 E0.25504
G1 X4.654 Y48.678 E0.26837
G1 X5.338 Y48.071 E0.29879
G1 X5.944 Y47.578 E0.32477
G1 X6.551 Y47.11 E0.35027
G1 X7.281 Y46.605 E0.37979
G1 X7.942 Y46.187 E0.4058
G1 X8.577 Y45.809 E0.43038
G1 X9.427 Y45.361 E0.46234
G1 X10.119 Y45.035 E0.48778
G1 X10.815 Y44.729 E0.51307
G1 X11.703 Y44.392 E0.54466
G1 X12.418 Y44.156 E0.5697
G1 X13.123 Y43.943 E0.5942
G1 X14.03 Y43.718 E0.62528
G1 X14.795 Y43.563 E0.65124
G1 X15.546 Y43.433 E0.67659
G1 X16.451 Y43.323 E0.70691
G1 X17.211 Y43.263 E0.73227
G1 X18.234 Y43.215 E0.76633
G1 X19.144 Y43.201 E0.7966
G1 X145.803 Y43.2 E5.00929
G1 X146.587 Y43.21 E5.03537
G1 X147.611 Y43.252 E5.06946
G1 X148.415 Y43.308 E5.09627
G1 X149.347 Y43.419 E5.12748
G1 X150.085 Y43.541 E5.15236
G1 X150.815 Y43.68 E5.17708
G1 X151.738 Y43.907 E5.20869
G1 X152.475 Y44.123 E5.23424
G1 X153.167 Y44.345 E5.25841
G1 X154.083 Y44.689 E5.29095
G1 X155.053 Y45.112 E5.32615
G1 X155.429 Y45.287 E5.33994
G1 X156.278 Y45.731 E5.37181
G1 X156.961 Y46.128 E5.39808
G1 X157.555 Y46.493 E5.42127
G1 X158.335 Y47.029 E5.45275
G1 X158.968 Y47.508 E5.47915
G1 X159.552 Y47.974 E5.504
G1 X160.249 Y48.592 E5.53498
G1 X161.043 Y49.366 E5.57186
G1 X161.322 Y49.654 E5.5852
G1 X161.929 Y50.338 E5.61562
G1 X162.422 Y50.944 E5.6416
G1 X162.89 Y51.551 E5.66709
G1 X163.395 Y52.281 E5.69662
G1 X163.813 Y52.942 E5.72263
G1 X164.191 Y53.577 E5.74721
G1 X164.639 Y54.427 E5.77916
G1 X165 Y55.199 E5.80751
G0 F6000 X165 Y56.228
G1 F1200 X164.893 Y55.947 E5.81751
G1 X164.599 Y55.28 E5.84175
G1 X164.277 Y54.598 E5.86684
G1 X163.847 Y53.782 E5.89752
G1 X163.469 Y53.147 E5.9221
G1 X163.057 Y52.495 E5.94775
G1 X162.561 Y51.779 E5.97672
G1 X162.105 Y51.188 E6.00155
G1 X161.619 Y50.591 E6.02715
G1 X161.023 Y49.92 E6.057
G1 X160.756 Y49.645 E6.06975
G1 X159.97 Y48.878 E6.10628
G1 X159.287 Y48.273 E6.13662
G1 X158.719 Y47.821 E6.16077
G1 X158.108 Y47.359 E6.18624
G1 X157.328 Y46.823 E6.21772
G1 X156.752 Y46.469 E6.24021
G1 X156.077 Y46.077 E6.26617
G1 X155.244 Y45.642 E6.29743
G1 X154.884 Y45.474 E6.31064
G1 X153.923 Y45.056 E6.3455
G1 X153.026 Y44.719 E6.37737
G1 X152.353 Y44.504 E6.40086
G1 X151.626 Y44.291 E6.42606
G1 X150.72 Y44.069 E6.45709
G1 X150.01 Y43.934 E6.48112
G1 X149.282 Y43.814 E6.50566
G1 X148.368 Y43.705 E6.53628
G1 X147.584 Y43.651 E6.56242
G1 X146.571 Y43.61 E6.59614
G1 X145.798 Y43.6 E6.62185
G1 X19.144 Y43.601 E10.83438
G1 X18.24 Y43.615 E10.86445
G1 X17.23 Y43.663 E10.89808
G1 X16.482 Y43.722 E10.92304
G1 X15.594 Y43.83 E10.95279
G1 X14.864 Y43.957 E10.97743
G1 X14.109 Y44.11 E11.00305
G1 X13.22 Y44.331 E11.03352
G1 X12.534 Y44.539 E11.05737
G1 X11.828 Y44.772 E11.08209
G1 X10.957 Y45.103 E11.11308
G1 X10.28 Y45.401 E11.13769
G1 X9.598 Y45.723 E11.16277
G1 X8.782 Y46.153 E11.19345
G1 X8.147 Y46.531 E11.21803
G1 X7.495 Y46.943 E11.24368
G1 X6.779 Y47.439 E11.27265
G1 X6.188 Y47.895 E11.29748
G1 X5.591 Y48.381 E11.32308
G1 X4.92 Y48.977 E11.35293
G1 X4.645 Y49.244 E11.36568
G1 X3.878 Y50.03 E11.40221
G1 X3.273 Y50.713 E11.43255
G1 X2.821 Y51.281 E11.4567
G1 X2.359 Y51.892 E11.48217
G1 X1.819 Y52.678 E11.51389
G1 X1.476 Y53.237 E11.53571
G1 X1.08 Y53.918 E11.56191
G1 X0.642 Y54.756 E11.59336
G1 X0.474 Y55.116 E11.60657
G1 X0.056 Y56.077 E11.64143
G1 X0.00 Y56.226 E11.64672
G0 F6000 X0.00 Y57.404
G1 F1200 X0.088 Y57.127 E11.65639
G1 X0.423 Y56.237 E11.68802
G1 X0.837 Y55.285 E11.72254
G1 X0.997 Y54.941 E11.73516
G1 X1.426 Y54.119 E11.766
G1 X1.817 Y53.446 E11.79189
G1 X2.149 Y52.904 E11.81303
G1 X2.678 Y52.133 E11.84413
G1 X3.134 Y51.53 E11.86927
G1 X3.573 Y50.978 E11.89273
G1 X4.165 Y50.309 E11.92244
G1 X4.923 Y49.531 E11.95857
G1 X5.186 Y49.276 E11.97075
G1 X5.844 Y48.691 E12.00004
G1 X6.432 Y48.212 E12.02526
G1 X7.007 Y47.768 E12.04943
G1 X7.723 Y47.272 E12.0784
G1 X8.352 Y46.875 E12.10314
G1 X8.969 Y46.507 E12.12703
G1 X9.769 Y46.085 E12.15711
G1 X10.442 Y45.767 E12.18187
G1 X11.099 Y45.477 E12.20576
G1 X11.953 Y45.152 E12.23615
G1 X12.65 Y44.922 E12.26056
G1 X13.317 Y44.719 E12.28375
G1 X14.188 Y44.502 E12.3136
G1 X14.933 Y44.351 E12.33889
G1 X15.642 Y44.227 E12.36283
G1 X16.513 Y44.121 E12.39201
G1 X17.249 Y44.063 E12.41656
G1 X18.246 Y44.015 E12.44976
G1 X19.144 Y44.001 E12.47963
G1 X145.793 Y44 E16.692
G1 X146.555 Y44.01 E16.71734
G1 X147.557 Y44.05 E16.7507
G1 X148.321 Y44.102 E16.77617
G1 X149.217 Y44.209 E16.80618
G1 X149.935 Y44.327 E16.83038
G1 X150.625 Y44.458 E16.85374
G1 X151.514 Y44.675 E16.88418
G1 X152.232 Y44.885 E16.90906
G1 X152.885 Y45.093 E16.93185
G1 X153.763 Y45.423 E16.96305
G1 X154.715 Y45.837 E16.99758
G1 X155.059 Y45.997 E17.01019
G1 X155.876 Y46.423 E17.04084
G1 X156.543 Y46.81 E17.06649
G1 X157.102 Y47.153 E17.0883
G1 X157.867 Y47.678 E17.11916
G1 X158.47 Y48.134 E17.14431
G1 X159.022 Y48.573 E17.16776
G1 X159.691 Y49.165 E17.19748
G1 X160.469 Y49.923 E17.2336
G1 X160.724 Y50.186 E17.24579
G1 X161.309 Y50.844 E17.27507
G1 X161.788 Y51.432 E17.3003
G1 X162.232 Y52.007 E17.32446
G1 X162.728 Y52.723 E17.35343
G1 X163.125 Y53.352 E17.37817
G1 X163.493 Y53.969 E17.40206
G1 X163.915 Y54.769 E17.43215
G1 X164.233 Y55.442 E17.4569
G1 X164.519 Y56.089 E17.48043
G1 X164.847 Y56.95 E17.51108
G1 X165 Y57.414 E17.52733
G1 F2700 E12.52733
G0 F6000 X165 Y109.795
G1 F2700 E17.52733
G1 F1200 X164.713 Y110.429 E17.55047
G1 X164.269 Y111.278 E17.58234
G1 X163.872 Y111.961 E17.60861
G1 X163.507 Y112.555 E17.6318
G1 X162.971 Y113.335 E17.66328
G1 X162.492 Y113.968 E17.68968
G1 X162.026 Y114.552 E17.71453
G1 X161.408 Y115.249 E17.74551
G1 X160.634 Y116.043 E17.78239
G1 X160.346 Y116.322 E17.79573
G1 X159.662 Y116.929 E17.82615
G1 X159.056 Y117.422 E17.85213
G1 X158.449 Y117.89 E17.87762
G1 X157.719 Y118.395 E17.90715
G1 X157.058 Y118.813 E17.93316
G1 X156.441 Y119.181 E17.95705
G1 X155.562 Y119.642 E17.99007
G1 X154.587 Y120.098 E18.02587
G1 X154.201 Y120.265 E18.03985
G1 X153.297 Y120.608 E18.07201
G1 X152.582 Y120.844 E18.09706
G1 X151.877 Y121.057 E18.12155
G1 X150.97 Y121.282 E18.15263
G1 X150.205 Y121.437 E18.17859
G1 X149.454 Y121.567 E18.20394
G1 X148.549 Y121.677 E18.23427
G1 X147.789 Y121.737 E18.25962
G1 X146.766 Y121.785 E18.29368
G1 X145.857 Y121.799 E18.32392
G1 X19.197 Y121.8 E22.53665
G1 X18.414 Y121.79 E22.56269
G1 X17.39 Y121.748 E22.59678
G1 X16.585 Y121.692 E22.62362
G1 X15.653 Y121.581 E22.65484
G1 X14.915 Y121.459 E22.67972
G1 X14.185 Y121.32 E22.70443
G1 X13.262 Y121.093 E22.73605
G1 X12.526 Y120.877 E22.76156
G1 X11.821 Y120.652 E22.78617
G1 X10.92 Y120.311 E22.81821
G1 X10.225 Y120.012 E22.84338
G1 X9.568 Y119.711 E22.86741
G1 X8.718 Y119.267 E22.89931
G1 X8.036 Y118.871 E22.92554
G1 X7.446 Y118.507 E22.9486
G1 X6.647 Y117.958 E22.98084
G1 X5.76 Y117.28 E23.01797
G1 X5.44 Y117.02 E23.03169
G1 X4.751 Y116.41 E23.0623
G1 X4.203 Y115.88 E23.08765
G1 X3.678 Y115.346 E23.11256
G1 X3.072 Y114.663 E23.14293
G1 X2.574 Y114.051 E23.16917
G1 X2.104 Y113.441 E23.19478
G1 X1.605 Y112.719 E23.22397
G1 X1.187 Y112.057 E23.25001
G1 X0.796 Y111.399 E23.27547
G1 X0.359 Y110.57 E23.30664
G1 X0.00 Y109.802 E23.33484
G0 F6000 X0.00 Y108.772
G1 F1200 X0.103 Y109.043 E23.34448
G1 X0.4 Y109.718 E23.36901
G1 X0.721 Y110.399 E23.39405
G1 X1.15 Y111.212 E23.42462
G1 X1.531 Y111.853 E23.44942
G1 X1.943 Y112.505 E23.47508
G1 X2.433 Y113.213 E23.50371
G1 X2.891 Y113.807 E23.52866
G1 X3.382 Y114.41 E23.55453
G1 X3.977 Y115.08 E23.58433
G1 X4.488 Y115.6 E23.60858
G1 X5.029 Y116.122 E23.63358
G1 X5.705 Y116.72 E23.6636
G1 X6.012 Y116.969 E23.67675
G1 X6.89 Y117.64 E23.7135
G1 X7.672 Y118.177 E23.74505
G1 X8.246 Y118.53 E23.76746
G1 X8.919 Y118.921 E23.79335
G1 X9.753 Y119.356 E23.82464
G1 X10.391 Y119.648 E23.84797
G1 X11.078 Y119.943 E23.87284
G1 X11.963 Y120.278 E23.90432
G1 X12.647 Y120.496 E23.92819
G1 X13.374 Y120.709 E23.95339
G1 X14.28 Y120.931 E23.98441
G1 X14.99 Y121.066 E24.00845
G1 X15.718 Y121.186 E24.03299
G1 X16.632 Y121.295 E24.06361
G1 X17.417 Y121.349 E24.08978
G1 X18.43 Y121.39 E24.1235
G1 X19.202 Y121.4 E24.14918
G1 X145.857 Y121.399 E28.36174
G1 X146.76 Y121.385 E28.39178
G1 X147.77 Y121.337 E28.42541
G1 X148.518 Y121.278 E28.45036
G1 X149.406 Y121.17 E28.48012
G1 X150.136 Y121.043 E28.50476
G1 X150.891 Y120.89 E28.53038
G1 X151.78 Y120.669 E28.56085
G1 X152.466 Y120.461 E28.58469
G1 X153.172 Y120.228 E28.60942
G1 X154.059 Y119.891 E28.64098
G1 X154.428 Y119.731 E28.65436
G1 X155.393 Y119.28 E28.68979
G1 X156.236 Y118.837 E28.72146
G1 X156.853 Y118.469 E28.74535
G1 X157.505 Y118.057 E28.77101
G1 X158.221 Y117.561 E28.79998
G1 X158.812 Y117.105 E28.8248
G1 X159.409 Y116.619 E28.85041
G1 X160.08 Y116.023 E28.88026
G1 X160.355 Y115.756 E28.89301
G1 X161.122 Y114.97 E28.92953
G1 X161.727 Y114.287 E28.95988
G1 X162.179 Y113.719 E28.98402
G1 X162.641 Y113.108 E29.0095
G1 X163.177 Y112.328 E29.04098
G1 X163.531 Y111.752 E29.06347
G1 X163.923 Y111.077 E29.08943
G1 X164.358 Y110.244 E29.12068
G1 X164.526 Y109.884 E29.1339
G1 X164.946 Y108.916 E29.16899
G1 X165 Y108.773 E29.17408
G0 F6000 X165 Y107.602
G1 F1200 X164.909 Y107.882 E29.18387
G1 X164.579 Y108.757 E29.21497
G1 X164.163 Y109.715 E29.24971
G1 X164.003 Y110.059 E29.26233
G1 X163.577 Y110.876 E29.29297
G1 X163.19 Y111.543 E29.31862
G1 X162.847 Y112.102 E29.34044
G1 X162.322 Y112.867 E29.3713
G1 X161.866 Y113.47 E29.39644
G1 X161.427 Y114.022 E29.4199
G1 X160.835 Y114.691 E29.44961
G1 X160.077 Y115.469 E29.48574
G1 X159.814 Y115.724 E29.49792
G1 X159.156 Y116.309 E29.52721
G1 X158.568 Y116.788 E29.55243
G1 X157.993 Y117.232 E29.57659
G1 X157.277 Y117.728 E29.60556
G1 X156.648 Y118.125 E29.6303
G1 X156.031 Y118.493 E29.6542
G1 X155.224 Y118.918 E29.68453
G1 X154.269 Y119.364 E29.71959
G1 X153.917 Y119.517 E29.73235
G1 X153.047 Y119.848 E29.76331
G1 X152.35 Y120.078 E29.78773
G1 X151.683 Y120.281 E29.81092
G1 X150.812 Y120.498 E29.84077
G1 X150.067 Y120.649 E29.86605
G1 X149.358 Y120.773 E29.88999
G1 X148.487 Y120.879 E29.91918
G1 X147.751 Y120.937 E29.94373
G1 X146.754 Y120.985 E29.97693
G1 X145.857 Y120.999 E30.00677
G1 X19.207 Y121 E34.21916
G1 X18.446 Y120.99 E34.24448
G1 X17.444 Y120.95 E34.27783
G1 X16.679 Y120.898 E34.30333
G1 X15.783 Y120.791 E34.33335
G1 X15.065 Y120.673 E34.35755
G1 X14.375 Y120.542 E34.38091
G1 X13.486 Y120.325 E34.41134
G1 X12.768 Y120.115 E34.43622
G1 X12.104 Y119.904 E34.4594
G1 X11.236 Y119.576 E34.49026
G1 X10.557 Y119.284 E34.51484
G1 X9.938 Y119.001 E34.53748
G1 X9.12 Y118.575 E34.56816
G1 X8.455 Y118.189 E34.59373
G1 X7.898 Y117.847 E34.61547
G1 X7.133 Y117.322 E34.64633
G1 X6.264 Y116.658 E34.6827
G1 X5.97 Y116.42 E34.69528
G1 X5.307 Y115.834 E34.72471
G1 X4.773 Y115.319 E34.74939
G1 X4.276 Y114.814 E34.77296
G1 X3.692 Y114.157 E34.80219
G1 X3.208 Y113.563 E34.82768
G1 X2.762 Y112.985 E34.85196
G1 X2.272 Y112.277 E34.8806
G1 X1.875 Y111.648 E34.90534
G1 X1.504 Y111.025 E34.92945
G1 X1.083 Y110.228 E34.95943
G1 X0.766 Y109.557 E34.98412
G1 X0.477 Y108.901 E35.00796
G1 X0.152 Y108.047 E35.03835
G1 X0.00 Y107.586 E35.05449
G1 F2700 E30.05449
;MESH:Front Plate.stl
G0 F6000 X13.093 Y106.073
G0 X14.227 Y106.705
G0 X14.841 Y106.959
G0 X15.5 Y107.047
G0 X16.034 Y106.976
G0 X17.417 Y106.41
;TYPE:WALL-INNER
G1 F2700 E35.05449
G1 F1200 X16.832 Y106.853 E35.0789
G1 X16.318 Y107.065 E35.09739
G1 X16.064 Y107.133 E35.10614
G1 X15.628 Y107.188 E35.12076
G1 X15.373 Y107.189 E35.12924
G1 X14.798 Y107.116 E35.14851
G1 X14.13 Y106.83 E35.17268
G1 X13.582 Y106.415 E35.19555
G1 X13.235 Y105.962 E35.21453
G1 X13.103 Y105.735 E35.22326
G1 X12.932 Y105.319 E35.23822
G1 X12.864 Y105.064 E35.247
G1 X12.808 Y104.628 E35.26162
G1 X12.807 Y104.373 E35.2701
G1 X12.863 Y103.933 E35.28485
G1 X12.936 Y103.666 E35.29406
G1 X13.145 Y103.167 E35.31205
G1 X13.584 Y102.581 E35.3364
G1 X14.042 Y102.232 E35.35556
G1 X14.262 Y102.105 E35.364
G1 X14.798 Y101.881 E35.38333
G1 X15.471 Y101.796 E35.40589
G1 X16.194 Y101.879 E35.43009
G1 X16.851 Y102.153 E35.45377
G1 X17.397 Y102.568 E35.47658
G1 X17.84 Y103.144 E35.50075
G1 X18.115 Y103.802 E35.52447
G1 X18.203 Y104.524 E35.54866
G1 X18.104 Y105.226 E35.57224
G1 X17.893 Y105.735 E35.59057
G1 X17.761 Y105.962 E35.5993
G1 X17.417 Y106.41 E35.61809
G0 F6000 X17.132 Y106.124
G1 F1200 X16.662 Y106.483 E35.63776
G1 X16.094 Y106.726 E35.6583
G1 X15.496 Y106.801 E35.67835
G1 X14.906 Y106.726 E35.69813
G1 X14.334 Y106.485 E35.71878
G1 X13.872 Y106.126 E35.73824
G1 X13.504 Y105.657 E35.75806
G1 X13.27 Y105.09 E35.77847
G1 X13.195 Y104.496 E35.79838
G1 X13.271 Y103.899 E35.81839
G1 X13.513 Y103.338 E35.83872
G1 X13.871 Y102.865 E35.85845
G1 X14.347 Y102.502 E35.87836
G1 X14.909 Y102.275 E35.89852
G1 X15.5 Y102.193 E35.91836
G1 X16.086 Y102.274 E35.93804
G1 X16.65 Y102.502 E35.95827
G1 X17.121 Y102.867 E35.97809
G1 X17.491 Y103.345 E35.99819
G1 X17.726 Y103.908 E36.01848
G1 X17.8 Y104.517 E36.03889
G1 X17.721 Y105.087 E36.05803
G1 X17.495 Y105.651 E36.07824
G1 X17.132 Y106.124 E36.09807
G1 F2700 E31.09807
G0 F6000 X17.371 Y106.308
G0 X18.292 Y105.241
G0 X29.504 Y104.632
G0 X30.827 Y105.396
G0 X31.541 Y105.705
G0 X32.306 Y105.839
G0 X32.933 Y105.803
G0 X34.595 Y105.311
G1 F2700 E36.09807
G1 F1200 X33.883 Y105.724 E36.12545
G1 X33.105 Y105.946 E36.15235
G1 X32.292 Y106 E36.17945
G1 X31.492 Y105.857 E36.20648
G1 X30.746 Y105.538 E36.23347
G1 X30.088 Y105.048 E36.26076
G1 X29.562 Y104.421 E36.28798
G1 X29.205 Y103.688 E36.31509
G1 X29.018 Y102.913 E36.34161
G1 X29.021 Y102.098 E36.36872
G1 X29.203 Y101.301 E36.39591
G1 X29.57 Y100.565 E36.42326
G1 X30.091 Y99.949 E36.4501
G1 X30.741 Y99.461 E36.47713
G1 X31.492 Y99.138 E36.50432
G1 X32.297 Y98.995 E36.53151
G1 X33.106 Y99.044 E36.55847
G1 X33.892 Y99.276 E36.58573
G1 X34.593 Y99.688 E36.61277
G1 X35.183 Y100.241 E36.63967
G1 X35.632 Y100.924 E36.66685
G1 X35.912 Y101.686 E36.69386
G1 X36.004 Y102.466 E36.71998
G1 X35.912 Y103.31 E36.74822
G1 X35.632 Y104.071 E36.77519
G1 X35.2 Y104.732 E36.80145
G1 X34.595 Y105.311 E36.8293
G0 F6000 X34.354 Y104.989
G1 F1200 X33.726 Y105.352 E36.85343
G1 X33.036 Y105.552 E36.87732
G1 X32.314 Y105.599 E36.90139
G1 X31.605 Y105.471 E36.92535
G1 X30.948 Y105.189 E36.94913
G1 X30.367 Y104.758 E36.97319
G1 X29.901 Y104.202 E36.99732
G1 X29.582 Y103.554 E37.02134
G1 X29.42 Y102.864 E37.04491
G1 X29.416 Y102.136 E37.06913
G1 X29.579 Y101.437 E37.093
G1 X29.905 Y100.79 E37.1171
G1 X30.369 Y100.241 E37.14101
G1 X30.944 Y99.81 E37.16491
G1 X31.606 Y99.525 E37.18888
G1 X32.321 Y99.397 E37.21304
G1 X33.038 Y99.441 E37.23693
G1 X33.728 Y99.644 E37.26085
G1 X34.351 Y100.01 E37.28488
G1 X34.874 Y100.499 E37.3087
G1 X35.274 Y101.109 E37.33296
G1 X35.519 Y101.778 E37.35666
G1 X35.605 Y102.496 E37.38071
G1 X35.52 Y103.218 E37.40489
G1 X35.273 Y103.89 E37.4287
G1 X34.87 Y104.497 E37.45293
G1 X34.354 Y104.989 E37.47665
G1 F2700 E32.47665
G0 F6000 X34.559 Y105.207
G0 X35.794 Y104.154
G0 X39.03 Y103.758
G0 X40.204 Y104.933
G0 X40.827 Y105.396
G0 X41.541 Y105.705
G0 X42.306 Y105.839
G0 X42.933 Y105.803
